packages/core/src/svg/ui/microphone-crossed.svg

<svg role="img" xmlns="http://www.w3.org/2000/svg" viewBox="0 0 24 24">
  <g fill="none" fill-rule="evenodd">
    <rect width="24" height="24"/>
    <path fill="currentColor" d="M19,11.5 C19,15.0261219 16.3928118,17.9433024 13.0010101,18.4289666 L12.9998932,21 L16,21 L16,23 L8,23 L8,21 L10.9998932,21 L11,18.42911 C10.4779709,18.3544401 9.97452935,18.2221752 9.49631076,18.038959 L11.1140992,16.4217592 C11.401632,16.4731693 11.6976827,16.5 12,16.5 C14.6887547,16.5 16.8818181,14.3776933 16.9953805,11.7168896 L17,11.5 L19,11.5 Z M19.7928932,2.79289322 L21.2071068,4.20710678 L4.70710678,20.7071068 L3.29289322,19.2928932 L19.7928932,2.79289322 Z M7,11.5 C7,12.0885063 7.10167356,12.6532655 7.28841324,13.1776701 L5.7699238,14.6948072 C5.31220839,13.804027 5.0399257,12.8023134 5.00405902,11.7406498 L5,11.5 L7,11.5 Z M12,1 C13.6568542,1 15,2.34314575 15,4 L15,5.463 L8.99995167,11.464 L8.99995167,4 C8.99995167,2.34314575 10.3431458,1 12,1 Z"/>
  </g>
</svg>

<svg viewBox="0 0 24 24" role="img" xmlns="http://www.w3.org/2000/svg"><g fill="none" fill-rule="evenodd"><path d="M0 0h24v24H0z"/><path d="M19 11.5a7.002 7.002 0 01-5.999 6.929L13 21h3v2H8v-2h3v-2.57a6.952 6.952 0 01-1.504-.391l1.618-1.617a5 5 0 005.881-4.705L17 11.5h2zm.793-8.707l1.414 1.414-16.5 16.5-1.414-1.414 16.5-16.5zM7 11.5c0 .589.102 1.153.288 1.678L5.77 14.695a6.963 6.963 0 01-.766-2.954L5 11.5h2zM12 1a4.003 4.003 0 013.967 3.499L14 6.464V5.029l-.003-.147A2 2 0 0012 3a1.999 1.999 0 00-1.98 1.7l-.015.153L10 5l-.001 5.465-1.792 1.794a4.062 4.062 0 01-.185-.848l-.016-.206L8 11V4.971l.007-.205A4 4 0 0112 1z" fill="currentColor"/></g></svg>
